src/topics/icons/memsql.svg

<svg height="235" preserveAspectRatio="xMidYMid" viewBox="0 0 256 235" width="256" xmlns="http://www.w3.org/2000/svg"><path d="m81.4007415 85.3744051c22.5347005-21.9763576 45.3429885-15.7424645 45.3429885-15.7424645 35.454743 7.5376227 33.567546 40.1727374 33.567546 40.1727374 9.670491-34.1314724-28.835594-49.466347-28.835594-49.466347 44.234678 13.9083097 39.097928 50.052606 39.097928 50.052606-1.395856 21.775355-20.725671 30.948921-20.725671 30.948921 35.284449-8.095965 28.642966-48.4529556 28.642966-48.4529556 7.233326 39.7818976-12.942377 51.8420936-24.109226 57.7046896-18.983642 9.770992-36.984602-2.244537-36.984602-2.244537 26.699935 26.191843 56.643839.17867 56.643839.17867-24.759695 23.648593-48.1347 15.186914-48.1347 15.186914-32.9422029-10.050164-30.3905781-38.832716-30.3905781-38.832716-9.9608287 33.891385 28.1711671 48.405496 28.1711671 48.405496-28.6541332-6.954155-36.3062161-31.906477-36.3062161-31.906477-9.7709924-38.246456 18.0149181-48.5115816 18.0149181-48.5115816-34.8070664 7.5124976-28.4447545 47.8694876-28.4447545 47.8694876-6.6777754-27.819411 7.9172955-44.5836424 7.9172955-44.5836424 24.846238-28.1962923 52.92807-10.8234679 52.92807-10.8234679-26.144384-25.9824645-56.5572958-.0642093-56.5572958-.0642093m73.7011998 125.9062156c28.475463-2.512541 81.797164-10.608506 101.059978-100.501635 0 0-25.40458 105.247546-108.876772 82.913849 0 0 54.438386-8.375136 76.21374-53.04253 0 0 42.434024-71.7470011-38.525627-139.58560519 0 0 78.167939 76.21374049 19.262814 137.35223519 0 0 30.429662-75.3762265-37.967285-121.4394762 0 0-42.434024-33.221374-108.8767719-6.4209378 0 0 101.3391499-32.3838605 127.0229009 51.6466739 0 0-51.925845-63.37186478-128.4187569-25.6837514 0 0-45.5049073 22.6128681-55.8342421 87.3805885 0 0 25.6837514-104.9683747 107.480916-82.0763355 0 0-73.4220283 3.3500546-85.7055616 91.8473285 0 0-5.8625954 59.463468 48.8549618 98.826608 0 0-78.16793888-74.538713-19.2628135-134.8396944 0 0-28.1962922 66.4427484 32.6630317 116.6935664 0 0 41.8756816 38.804798 114.4601966 10.050163 0 0-100.5016361 32.663032-127.0229011-52.484187-.2791712.279171 34.8964011 43.82988 83.4721921 39.36314" fill="#348dcc"/></svg>

<?xml version="1.0" encoding="UTF-8" standalone="no"?>
<svg width="256px" height="235px" viewBox="0 0 256 235" version="1.1" xmlns="http://www.w3.org/2000/svg" xmlns:xlink="http://www.w3.org/1999/xlink" preserveAspectRatio="xMidYMid">
    <g>
        <path d="M81.4007415,85.3744051 C103.935442,63.3980475 126.74373,69.6319406 126.74373,69.6319406 C162.198473,77.1695633 160.311276,109.804678 160.311276,109.804678 C169.981767,75.6732056 131.475682,60.338331 131.475682,60.338331 C175.71036,74.2466407 170.57361,110.390937 170.57361,110.390937 C169.177754,132.166292 149.847939,141.339858 149.847939,141.339858 C185.132388,133.243893 178.490905,92.8869024 178.490905,92.8869024 C185.724231,132.6688 165.548528,144.728996 154.381679,150.591592 C135.398037,160.362584 117.397077,148.347055 117.397077,148.347055 C144.097012,174.538898 174.040916,148.525725 174.040916,148.525725 C149.281221,172.174318 125.906216,163.712639 125.906216,163.712639 C92.9640131,153.662475 95.5156379,124.879923 95.5156379,124.879923 C85.5548092,158.771308 123.686805,173.285419 123.686805,173.285419 C95.0326718,166.331264 87.3805889,141.378942 87.3805889,141.378942 C77.6095965,103.132486 105.395507,92.8673604 105.395507,92.8673604 C70.5884406,100.379858 76.9507525,140.736848 76.9507525,140.736848 C70.2729771,112.917437 84.868048,96.1532056 84.868048,96.1532056 C109.714286,67.9569133 137.796118,85.3297377 137.796118,85.3297377 C111.651734,59.3472732 81.2388222,85.2655284 81.2388222,85.2655284 M154.940022,211.171744 C183.415485,208.659203 236.737186,200.563238 256,110.670109 C256,110.670109 230.59542,215.917655 147.123228,193.583958 C147.123228,193.583958 201.561614,185.208822 223.336968,140.541428 C223.336968,140.541428 265.770992,68.7944269 184.811341,0.955822805 C184.811341,0.955822805 262.97928,77.1695633 204.074155,138.308058 C204.074155,138.308058 234.503817,62.9318315 166.10687,16.8685818 C166.10687,16.8685818 123.672846,-16.3527922 57.2300981,10.447644 C57.2300981,10.447644 158.569248,-21.9362165 184.252999,62.0943179 C184.252999,62.0943179 132.327154,-1.27754688 55.8342421,36.4105665 C55.8342421,36.4105665 10.3293348,59.0234346 0,123.791155 C0,123.791155 25.6837514,18.8227803 107.480916,41.7148195 C107.480916,41.7148195 34.0588877,45.0648741 21.7753544,133.562148 C21.7753544,133.562148 15.912759,193.025616 70.6303162,232.388756 C70.6303162,232.388756 -7.53762268,157.850043 51.3675027,97.5490616 C51.3675027,97.5490616 23.1712105,163.99181 84.0305344,214.242628 C84.0305344,214.242628 125.906216,253.047426 198.490731,224.292791 C198.490731,224.292791 97.9890949,256.955823 71.4678299,171.808604 C71.1886587,172.087775 106.364231,215.638484 154.940022,211.171744" fill="#348DCC"></path>
    </g>
</svg>
